X:1
T:In Christ There Is No East or West
T:Text: John Oxenham (1852-1941), alt. Tune: Alexander R. Rienagle (1799-1877)
T:CM ST. PETER www.hymnary.org/text/in_christ_there_is_no_east_or_west_oxenh
T:In Christ There Is No East or West
T:This hymn is in the public domain.  You may freely use this score for personal and congregational worship.  If you reproduce the score, please credit Hymnary.org as the source. 
T:This hymn is in the public domain.  You may freely use this score for personal and congregational worship.  If you reproduce the score, please credit Hymnary.org as the source. 
Z:This hymn is in the public domain.  You may freely use this score for personal and congregational worship.  If you reproduce the score, please credit Hymnary.org as the source.
%%score ( 1 2 ) ( 3 4 )
L:1/8
M:4/4
K:D
V:1 treble nm="Piano" snm="Pno."
V:2 treble 
V:3 bass nm="Piano" snm="Pno."
V:4 bass 
V:1
 [DA]2 | [Fd]2 [Fc]2 [DB]2 [DA]2 | [EA]2 [CG]2 [DF]2 [DF]2 | E2 D2 [CG]2 [DF]2 | [CE]6 | [DF]2 | %6
w: 3~Join|hands, dis- ci- ples|of the faith, what-|e'er your race may|be!|Who|
w: 1~In|Christ there is no|east or west, in|him no south or|north,|but|
w: 2~In|him shall true hearts|ev- ery- where their|high com- mun- ion|find;|his|
 [DG]2 [DF]2 [DB]2 [DA]2 | [B,A]2 [CG]2 [DF]2 [B,D]2 | [DF]2 [B,E]2 [A,D]2 [A,C]2 | [A,D]6 |] %10
w: serves my Fa- ther|as his child is|sure- ly kin to|me.|
w: one great fel- lows-|hip of love through-|out the whole wide|earth.|
w: ser- vice is the|gol- den cord close|bin- ding hu- man-|kind.|
V:2
 x2 | x8 | x8 | B,C D2 x4 | x6 | x2 | x8 | x8 | x8 | x6 |] %10
V:3
 [D,F,]2 | [D,A,]2 [F,A,]2 G,2 [F,A,]2 | [C,A,]2 [A,,A,]2 [D,A,]2 [D,A,]2 | %3
 [G,B,]2 [F,A,]2 [E,G,]2 [D,A,]2 | [A,,A,]6 | A,2 | [B,,G,]2 [A,,A,]2 [G,,B,]2 [F,,D,]2 | %7
 [E,,E,]2 [A,,E,]2 [B,,D,]2 [B,,F,]2 | [F,,A,]2 [G,,G,]2 [A,,F,]2 E,G, | [D,F,]6 |] %10
V:4
 x2 | x4 G,2 x2 | x8 | x8 | x6 | D,=C, | x8 | x8 | x6 A,,2 | x6 |] %10

